X: 647
T: Hickman County
C:Paul Warren
B: jims roots
M:4/4
L:1/8
Q: 1/4=100
K:D
V:1 
fg | "D"a2d2a2d2 | abaf edBd | fabf afde | "A"faed "D"Bdfg |
        a2d2a2d2 | abaf edBd | fabf afde | "A"fdec "D"d4 ||
"D"J[d6f] e2 | fedf edBd | Jf2 Jf2 edBd | "A"ABdf "D"ed3 |
   J[d6f] e2 | fedf edBd | fabf afde | "A"faec "D"d4 |]
% abcbook-tune_id 6298c25dd65670f8756500e6


% abcbook-boost 0
% abcbook-tablature 
% abcbook-transpose 
% abcbook-lastupdated 1654178398763
% abcbook-soundfonts 
% abcbook-repeats 1


